X: 5
T: Frailach
Z: JACKB
S: https://thesession.org/tunes/445#setting53393
R: hornpipe
M: 4/4
L: 1/8
K: Emin
|:"Em"BEGB BEBE|"Am"A2AG AB(G2|"G"G)BdB GBdB|"D7"A2AG "G"AB(G2|
"B7"G)AA(G G)FF=F|"Em"(E4 E4)|"B7"GAA(G G)FF=F|"Em"E6:|
|:B/E/G/B/|"Em"e6 dc|(B6 B2)|eBeB e2dc|(B6 B2)|
e6 d2|(=f6 f2)|eBeB "Am"e2dc|"Em"B4 BA|
"G"GABc BcBc|BcBc "Am"B2A2|"Am"AEE(A A)EEA|AGAB "G"A2G2|
"B7"GAA(G G)FF=F|"Em"(E4 E4)|"B7"GAA(G G)FF=F|1 "Em"(E4E2):|2 "Em"(E4 E4)||

%-------------------- TUNE SEPARATOR --------------------%

